X:1
T:Ira Justa, 87.87.77
T:Edward Henry Thorne, 1875
T:Ira Justa, 87.87.77
T:Public Domain
C:Edward Henry Thorne, 1875
Z:Public Domain
%%score ( 1 2 ) ( 3 4 )
L:1/8
M:4/4
K:A
V:1 treble 
V:2 treble 
V:3 bass 
V:4 bass 
V:1
 A3 A =G2 E2 | =F2 =C2 E2 E2 | A3 A =G2 E2 | =F2 =C2 E4 | [EA]3 [EA] [EA]2 [EG]2 | %5
 [EB]3 [EB] [EB]2 [EA]2 | [Ac]3 [=Gc] [Fc]2 [FB]2 | [Fd]2 [FB]2 [^Ec]4 | [Ee]3 [Ec] [EB]2 [E^A]2 | %9
 [Dd]3 [DB] (A2 G2) |"^poco rit." [CA]3 [DA] [EA]2 [FA]2 | [FG]2 [EG]2 [EA]4 |] %12
V:2
 A3 A =G2 E2 | =F2 =C2 E2 E2 | A3 A =G2 E2 | =F2 =C2 E4 | x8 | x8 | x8 | x8 | x8 | x4 D4 | x8 | %11
 x8 |] %12
V:3
 A,3 A, =G,2 E,2 | =F,2 =C,2 E,2 E,2 | A,3 A, =G,2 E,2 | =F,2 =C,2 E,4 | %4
 [A,C]3 [A,C] [A,C]2 [E,B,]2 | [G,D]3 [G,D] [G,D]2 [A,C]2 | [A,E]3 [A,E] [B,E]2 [B,D]2 | %7
 [B,,D]2 [D,D]2 [C,G,]4 | G,2 ^A,[C,B,] [F,C]2 F,2 | (F,2 G,)[B,,A,] (E,2 ^E,2) | %10
 [F,A,]3 [D,B,] [C,C]2 [B,,D]2 | [D,B,]2 ([C,C][B,,D]) [A,,C]4 |] %12
V:4
 A,3 A, =G,2 E,2 | =F,2 =C,2 E,2 E,2 | A,3 A, =G,2 E,2 | =F,2 =C,2 E,4 | x8 | x8 | x8 | x8 | %8
 C,3 x F,2 x2 | B,,3 B,4 x | x8 | x8 |] %12

